X:1
T:60 Lessons for 2 Guitars, Op.168 - Joseph Küffner (1776 - 1856)
T:Leçon No.52
T:60 Lessons for 2 Guitars, Op.168 "à l'usage des commençants"
T:Joseph Küffner (1776 - 1856)
%%score { ( 1 2 ) ( 3 4 ) } { ( 5 6 ) ( 7 8 ) }
L:1/8
Q:1/4=80
M:3/4
K:A
V:1 treble-8 nm="Classical Guitar"
V:2 treble-8 
V:3 tab stafflines=6 strings=E2,A2,D3,G3,B3,E4 nostems nm="Guitare classique [Tablature]"
V:4 tab stafflines=6 strings=E2,A2,D3,G3,B3,E4 nostems 
V:5 treble-8 nm="Guitare classique"
V:6 treble-8 
V:7 tab stafflines=6 strings=E2,A2,D3,G3,B3,E4 nostems nm="Guitare classique [Tablature]"
V:8 tab stafflines=6 strings=E2,A2,D3,G3,B3,E4 nostems 
V:1
 z6"^Polonaise" |"_" [Ac]3"_dol." (c/d/) B(B/c/) | Ac E2 z2 | [Bd]3 [GB][Ac][Bd] | %4
 [Ac]2!<(! [GB][GB][Ac][Bd]!<)! |"_" [ce]3 [Ac][Bd][ce] | [df] a2 .g/.f/ .e/.d/.c/.B/ | %7
 A/c/e- e/a/g/f/ e/d/c/B/ | [E,GB]4 [A,A]2 |:"_" [Bg]3 [Bg][Af][Ge] | [Ge]>[F^d] [Fd]2 z2 | %11
 [fa]3 [fa][eg][^df] | [^d^^f]>[eg] [eg]2 z2 |"_""^IV" !4!b2- b/.a/.g/.f/ .e/.^d/.c/.^B/ | %14
 .c.f/.^e/ .g/.f/.a/.g/ .b/.a/.g/.f/ | .b/.^a/.=a/.g/ .f/.e/.^d/.c/ .B/.A/.G/.F/ | E2 z2 z2 | %17
 z (!>!=f/>e/) e z z2 | z (!>!=f/>e/) e z z2 |"_poco rall." d' z d' z d' z | !>!d'3 .b.g.e | %21
 !>!=f3 .d.B.A | .G/.B/(=f/e/) .^d/.e/.g/.^f/ .e/.=d/.c/.B/ | %23
!>(! .A/.G/.F/.E/ .^D/.E/.F/.G/ .A/.^A/.B/.^B/!>)! |"^a tempo""_" [Ac]3 (c/d/) .B(B/c/) | %25
 Ac E2 z2 | [Bd]3 [GB][Ac][Bd] | [Ac]2!<(! [GB][GB][Ac]!<)![Bd] |"_" [ce]3 [Ac][Bd][ce] | %29
 [df] a2 .g/.f/ .e/.d/.c/.B/ | A/c/e- e/.a/.g/.f/ .e/.d/.B/.G/ | A/c/E/c/ A/c/E/c/ A/c/E/c/ | %32
 z/ .G/.B/.G/ .e/.B/.g/.f/ .e/.d/.c/.B/ |"_" A/c/E/c/ A/c/E/c/ A/c/E/c/ | %34
 z/ .G/.B/.G/ .e/.B/.g/.f/ .e/.d/.c/.B/ |"_" A/c/E/c/ A/c/E/c/ A/c/E/c/ | %36
 z/ .A/.d/.A/ .f/.^e/.g/.f/ .=e/.d/.c/.B/ | z/ A/c/e/ a/g/f/e/ e/d/c/B/ | %38
"_" A(3E/A/c/ e(3A/c/e/ a!arpeggio![E,Bdg] | %39
 !arpeggio![A,cea](3E/A/c/ e(3A/c/e/ a!arpeggio![E,Bdg] | !arpeggio![A,cea]2 [A,A]2 z2 :| %41
V:2
 x6 | A,3 z z2 | x6 | E,3 z z2 | E,6 | A,3 z z2 | D z2 z z2 | E,2 z2 z2 | x6 |: x6 | x6 | x6 | x6 | %13
 x6 | x6 | x6 | x6 | x6 | x6 | x6 | x6 | x6 | x6 | x6 | A,3 z z2 | x6 | E,3 z z2 | E,6 | A,3 z z2 | %29
 D z2 z z2 | E,2 z2 z2 | AE AE AE | E,4 x2 | AE AE AE | E,4 x2 | AE AE AE | D4 z2 | E,4 z2 | x6 | %39
 x6 | x6 :| %41
V:3
 x6 | [!3!A,!2!C]3 (!2!C/ !2!D/) !2!B, (!2!B,/ !2!C/) | !3!A, !2!C !4!E,2 x2 | %3
 [!3!B,!2!D]3 [!3!G,!2!B,] [!3!A,!2!C] [!3!B,!2!D] | %4
 [!3!A,!2!C]2 [!3!G,!2!B,] [!3!G,!2!B,] [!3!A,!2!C] [!3!B,!2!D] | %5
 [!2!C!1!E]3 [!3!A,!2!C] [!3!B,!2!D] [!2!C!1!E] | %6
 [!2!D!1!F] !1!A2 !1!G/ !1!F/ !1!E/ !2!D/ !2!C/ !2!B,/ | %7
 !3!A,/ !2!C/ !1!E- !1!E/ !1!A/ !1!G/ !1!F/ !1!E/ !2!D/ !2!C/ !2!B,/ | %8
 [!6!E,,!3!G,!2!B,]4 [!5!A,,!3!A,]2 |: [!3!B,!1!G]3 [!3!B,!1!G] [!3!A,!1!F] [!3!G,!1!E] | %10
 [!3!G,!1!E]3/2 [!4!F,!2!^D]/ [!4!F,!2!D]2 x2 | [!2!F!1!A]3 [!2!F!1!A] [!2!E!1!G] [!2!^D!1!F] | %12
 [!2!^D!1!^^F]3/2 [!2!E!1!G]/ [!2!E!1!G]2 x2 | %13
 !1!B2- !1!B/ !1!A/ !1!G/ !2!F/ !2!E/ !2!^D/ !3!C/ !3!^B,/ | %14
 !3!C !2!F/ !2!^E/ !1!G/ !2!F/ !1!A/ !1!G/ !1!B/ !1!A/ !1!G/ !2!F/ | %15
 !1!B/ !1!^A/ !1!=A/ !1!G/ !2!F/ !2!E/ !2!^D/ !3!C/ !3!B,/ !4!A,/ !4!G,/ !4!F,/ | !5!E,2 x2 x2 | %17
 x (!1!=F3/4 !1!E/4) !1!E x x2 | x (!1!=F3/4 !1!E/4) !1!E x x2 | !1!d x !1!d x !1!d x | %20
 !1!d3 !1!B !1!G !1!E | !1!=F3 !2!D !2!B, !3!A, | %22
 !3!G,/ !2!B,/ (!1!=F/ !1!E/) !2!^D/ !1!E/ !1!G/ !1!^F/ !1!E/ !2!=D/ !2!C/ !2!B,/ | %23
 !3!A,/ !3!G,/ !4!F,/ !4!E,/ !4!^D,/ !4!E,/ !4!F,/ !3!G,/ !3!A,/ !3!^A,/ !2!B,/ !2!^B,/ | %24
 [!3!A,!2!C]3 (!2!C/ !2!D/) !2!B, (!2!B,/ !2!C/) | !3!A, !2!C !4!E,2 x2 | %26
 [!3!B,!2!D]3 [!3!G,!2!B,] [!3!A,!2!C] [!3!B,!2!D] | %27
 [!3!A,!2!C]2 [!3!G,!2!B,] [!3!G,!2!B,] [!3!A,!2!C] [!3!B,!2!D] | %28
 [!2!C!1!E]3 [!3!A,!2!C] [!3!B,!2!D] [!2!C!1!E] | %29
 [!2!D!1!F] !1!A2 !1!G/ !1!F/ !1!E/ !2!D/ !2!C/ !2!B,/ | %30
 !3!A,/ !2!C/ !1!E- !1!E/ !1!A/ !1!G/ !1!F/ !1!E/ !2!D/ !2!B,/ !3!G,/ | %31
 !3!A,/ !2!C/ !4!E,/ !2!C/ !3!A,/ !2!C/ !4!E,/ !2!C/ !3!A,/ !2!C/ !4!E,/ !2!C/ | %32
 x/ !3!G,/ !2!B,/ !3!G,/ !1!E/ !2!B,/ !1!G/ !1!F/ !1!E/ !2!D/ !2!C/ !2!B,/ | %33
 !3!A,/ !2!C/ !4!E,/ !2!C/ !3!A,/ !2!C/ !4!E,/ !2!C/ !3!A,/ !2!C/ !4!E,/ !2!C/ | %34
 x/ !3!G,/ !2!B,/ !3!G,/ !1!E/ !2!B,/ !1!G/ !1!F/ !1!E/ !2!D/ !2!C/ !2!B,/ | %35
 !3!A,/ !2!C/ !4!E,/ !2!C/ !3!A,/ !2!C/ !4!E,/ !2!C/ !3!A,/ !2!C/ !4!E,/ !2!C/ | %36
 x/ !3!A,/ !2!D/ !3!A,/ !1!F/ !1!^E/ !1!G/ !1!F/ !1!=E/ !2!D/ !2!C/ !2!B,/ | %37
 x/ !3!A,/ !2!C/ !1!E/ !1!A/ !1!G/ !1!F/ !1!E/ !1!E/ !2!D/ !2!C/ !2!B,/ | %38
 !3!A, (3!4!E,/ !3!A,/ !2!C/ !1!E (3!3!A,/ !2!C/ !1!E/ !1!A [!6!E,,!3!B,!2!D!1!G] | %39
 [!5!A,,!3!C!2!E!1!A] (3!4!E,/ !3!A,/ !2!C/ !1!E (3!3!A,/ !2!C/ !1!E/ !1!A [!6!E,,!3!B,!2!D!1!G] | %40
 [!5!A,,!3!C!2!E!1!A]2 [!5!A,,!3!A,]2 x2 :| %41
V:4
 x6 | !5!A,,3 x x2 | x6 | !6!E,,3 x x2 | !6!E,,6 | !5!A,,3 x x2 | !4!D, x2 x x2 | !6!E,,2 x2 x2 | %8
 x6 |: x6 | x6 | x6 | x6 | x6 | x6 | x6 | x6 | x6 | x6 | x6 | x6 | x6 | x6 | x6 | !5!A,,3 x x2 | %25
 x6 | !6!E,,3 x x2 | !6!E,,6 | !5!A,,3 x x2 | !4!D, x2 x x2 | !6!E,,2 x2 x2 | x x x x x x | %32
 !6!E,,4 x2 | x x x x x x | !6!E,,4 x2 | x x x x x x | !4!D,4 x2 | !6!E,,4 x2 | x6 | x6 | x6 :| %41
V:5
"_" z [EAc][EAc][EAc][EAc][EAc] | z [EAc][EAc][EAc] z [EGd] | %2
 z/!<(! E/A/c/ e/c/!<)!!>(!a/g/ f/e/d/!>)!c/ | z/ G/B/G/ z/ G/B/G/ A,/A/D/d/ | %4
 E,/E/E,/E/ E,/!<(!E/e/E/ E,/E/e/E/!<)! |"_" z/ E/A/c/ A,2 z2 | z/ A/d/f/ D2 z2 | %7
 z [EAc][EAc][EAc] z [EGd] | z/ E/G/E/ d/E/G/E/ [A,EAc]2 |:"_" E,/E/e/E/ E,/E/e/E/ E,/E/e/E/ | %10
 B,/B/B/B/ B,/(B/c/B/) F/B/^D/B/ | B,/B/B,/B/ B,/B/B,/B/ B,/B/B,/B/ | z/ E/G/B/ e/B/g/e/ B/e/G/B/ | %13
"_" !arpeggio![GBe]4 z2 | !arpeggio![A,Ace]2 z2 !arpeggio![A,Acf]2 | %15
 !arpeggio![B,GBe]2 z2 !arpeggio![B,ABf]2 | %16
 z/ G/B/e/ E,!arpeggio![E,^Ace]!arpeggio![E,Bde]!arpeggio![E,Ace] | %17
 !arpeggio![E,Bde]2 z !arpeggio![E,^Ace]!arpeggio![E,Bde]!arpeggio![E,Ace] | %18
 !arpeggio![E,Bde]2 z !arpeggio![E,^Ace]!arpeggio![E,Bde]!arpeggio![E,Ace] | %19
 !arpeggio![E,Bde]!arpeggio![E,^Ace]!arpeggio![E,Bde]!arpeggio![E,Ace]!arpeggio![E,Bde]!arpeggio![E,Ace] | %20
 !arpeggio!!>![E,Bde]3 z z2 | z6 | z6 | z6 |"_" z [EAc][EAc][EAc] z [EGd] | %25
 z/!<(! E/A/c/ e/c/!<)!!>(!a/g/ f/e/d/c/!>)! | z/ G/B/G/ z/ G/B/G/ A,/A/D/d/ | %27
 E,/E/E,/E/ E,/E/e/E/ E,/E/e/E/ |"_" z/ E/A/c/ A,2 z2 | z/ A/d/f/ D2 z2 | %30
 z [EAc][EAc][EAc] z [EGd] | !arpeggio![A,EAc]2 z [ca][ca][ca] | [Bg]2 z [E,Bd][E,Bd][E,Bd] | %33
"_" [A,Ac]2 z [ca][ca][ca] | [Bg]2 z [E,Bd][E,Bd][E,Bd] |"_" [A,Ac]2 z [A,ce][A,ce][A,ce] | %36
 [Ddf]2 z [DBd][DBd][DBd] | [E,Ac]2 z2 [E,GB]2 |"_" [A,A]2 z2 z !arpeggio![E,Gde] | %39
 [A,Ace]2 z2 z !arpeggio![E,Gde] | !arpeggio![A,Ace]2 [Acea]2 z2 :| %41
V:6
 A,6 | A,4 E,2 | A,6 | E,2 E2 A, x | x6 | A,2 x2 x2 | D2 x2 x2 | E,4 E,2 | E,4 x2 |: x6 | x6 | x6 | %12
 E,4 x2 | x6 | x6 | x6 | E,2 x2 x2 | x6 | x6 | x6 | x6 | x6 | x6 | x6 | A,4 E,2 | A,6 | %26
 E,2 E2 A, x | x6 | A,2 x2 x2 | D2 x2 x2 | E,4 E,2 | x6 | x6 | x6 | x6 | x6 | x6 | x6 | x6 | x6 | %40
 x6 :| %41
V:7
 x [!4!E,!3!A,!2!C] [!4!E,!3!A,!2!C] [!4!E,!3!A,!2!C] [!4!E,!3!A,!2!C] [!4!E,!3!A,!2!C] | %1
 x [!4!E,!3!A,!2!C] [!4!E,!3!A,!2!C] [!4!E,!3!A,!2!C] x [!4!E,!3!G,!2!D] | %2
 x/ !4!E,/ !3!A,/ !2!C/ !1!E/ !2!C/ !1!A/ !1!G/ !1!F/ !1!E/ !2!D/ !2!C/ | %3
 x/ !3!G,/ !2!B,/ !3!G,/ x/ !3!G,/ !2!B,/ !3!G,/ !5!A,,/ !3!A,/ !4!D,/ !2!D/ | %4
 !6!E,,/ !4!E,/ !6!E,,/ !4!E,/ !6!E,,/ !4!E,/ !2!E/ !4!E,/ !6!E,,/ !4!E,/ !2!E/ !4!E,/ | %5
 x/ !4!E,/ !3!A,/ !2!C/ !5!A,,2 x2 | x/ !3!A,/ !2!D/ !1!F/ !4!D,2 x2 | %7
 x [!4!E,!3!A,!2!C] [!4!E,!3!A,!2!C] [!4!E,!3!A,!2!C] x [!4!E,!3!G,!2!D] | %8
 x/ !4!E,/ !3!G,/ !4!E,/ !2!D/ !4!E,/ !3!G,/ !4!E,/ [!5!A,,!4!E,!3!A,!2!C]2 |: %9
 !6!E,,/ !4!E,/ !1!E/ !4!E,/ !6!E,,/ !4!E,/ !1!E/ !4!E,/ !6!E,,/ !4!E,/ !1!E/ !4!E,/ | %10
 !5!B,,/ !2!B,/ !2!B,/ !2!B,/ !5!B,,/ (!2!B,/ !2!C/ !2!B,/) !4!F,/ !2!B,/ !4!^D,/ !2!B,/ | %11
 !5!B,,/ !2!B,/ !5!B,,/ !2!B,/ !5!B,,/ !2!B,/ !5!B,,/ !2!B,/ !5!B,,/ !2!B,/ !5!B,,/ !2!B,/ | %12
 x/ !4!E,/ !3!G,/ !2!B,/ !1!E/ !2!B,/ !1!G/ !1!E/ !2!B,/ !1!E/ !3!G,/ !2!B,/ | %13
 [!3!G,!2!B,!1!E]4 x2 | [!5!A,,!3!A,!2!C!1!E]2 x2 [!5!A,,!3!A,!2!C!1!F]2 | %15
 [!5!B,,!3!G,!2!B,!1!E]2 x2 [!5!B,,!3!A,!2!B,!1!F]2 | %16
 x/ !3!G,/ !2!B,/ !1!E/ !6!E,, [!6!E,,!3!^A,!2!C!1!E] [!6!E,,!3!B,!2!D!1!E] [!6!E,,!3!A,!2!C!1!E] | %17
 [!6!E,,!3!B,!2!D!1!E]2 x [!6!E,,!3!^A,!2!C!1!E] [!6!E,,!3!B,!2!D!1!E] [!6!E,,!3!A,!2!C!1!E] | %18
 [!6!E,,!3!B,!2!D!1!E]2 x [!6!E,,!3!^A,!2!C!1!E] [!6!E,,!3!B,!2!D!1!E] [!6!E,,!3!A,!2!C!1!E] | %19
 [!6!E,,!3!B,!2!D!1!E] [!6!E,,!3!^A,!2!C!1!E] [!6!E,,!3!B,!2!D!1!E] [!6!E,,!3!A,!2!C!1!E] [!6!E,,!3!B,!2!D!1!E] [!6!E,,!3!A,!2!C!1!E] | %20
 [!6!E,,!3!B,!2!D!1!E]3 x x2 | x6 | x6 | x6 | %24
 x [!4!E,!3!A,!2!C] [!4!E,!3!A,!2!C] [!4!E,!3!A,!2!C] x [!4!E,!3!G,!2!D] | %25
 x/ !4!E,/ !3!A,/ !2!C/ !1!E/ !2!C/ !1!A/ !1!G/ !1!F/ !1!E/ !2!D/ !2!C/ | %26
 x/ !3!G,/ !2!B,/ !3!G,/ x/ !3!G,/ !2!B,/ !3!G,/ !5!A,,/ !3!A,/ !4!D,/ !2!D/ | %27
 !6!E,,/ !4!E,/ !6!E,,/ !4!E,/ !6!E,,/ !4!E,/ !2!E/ !4!E,/ !6!E,,/ !4!E,/ !2!E/ !4!E,/ | %28
 x/ !4!E,/ !3!A,/ !2!C/ !5!A,,2 x2 | x/ !3!A,/ !2!D/ !1!F/ !4!D,2 x2 | %30
 x [!4!E,!3!A,!2!C] [!4!E,!3!A,!2!C] [!4!E,!3!A,!2!C] x [!4!E,!3!G,!2!D] | %31
 [!5!A,,!4!E,!3!A,!2!C]2 x [!3!C!1!A] [!3!C!1!A] [!3!C!1!A] | %32
 [!3!B,!1!G]2 x [!6!E,,!3!B,!2!D] [!6!E,,!3!B,!2!D] [!6!E,,!3!B,!2!D] | %33
 [!5!A,,!3!A,!2!C]2 x [!3!C!1!A] [!3!C!1!A] [!3!C!1!A] | %34
 [!3!B,!1!G]2 x [!6!E,,!3!B,!2!D] [!6!E,,!3!B,!2!D] [!6!E,,!3!B,!2!D] | %35
 [!5!A,,!3!A,!2!C]2 x [!5!A,,!2!C!1!E] [!5!A,,!2!C!1!E] [!5!A,,!2!C!1!E] | %36
 [!4!D,!2!D!1!F]2 x [!4!D,!3!B,!2!D] [!4!D,!3!B,!2!D] [!4!D,!3!B,!2!D] | %37
 [!6!E,,!3!A,!2!C]2 x2 [!6!E,,!3!G,!2!B,]2 | [!5!A,,!3!A,]2 x2 x [!6!E,,!3!G,!2!D!1!E] | %39
 [!5!A,,!3!A,!2!C!1!E]2 x2 x [!6!E,,!3!G,!2!D!1!E] | %40
 [!5!A,,!3!A,!2!C!1!E]2 [!4!A,!3!C!2!E!1!A]2 x2 :| %41
V:8
 !5!A,,6 | !5!A,,4 !6!E,,2 | !5!A,,6 | !6!E,,2 !4!E,2 x x | x6 | !5!A,,2 x2 x2 | !4!D,2 x2 x2 | %7
 !6!E,,4 !6!E,,2 | !6!E,,4 x2 |: x6 | x6 | x6 | !6!E,,4 x2 | x6 | x6 | x6 | !6!E,,2 x2 x2 | x6 | %18
 x6 | x6 | x6 | x6 | x6 | x6 | !5!A,,4 !6!E,,2 | !5!A,,6 | !6!E,,2 !4!E,2 x x | x6 | %28
 !5!A,,2 x2 x2 | !4!D,2 x2 x2 | !6!E,,4 !6!E,,2 | x6 | x6 | x6 | x6 | x6 | x6 | x6 | x6 | x6 | %40
 x6 :| %41

